img/mainMarker.svg

<svg width="68" height="76" viewBox="0 0 68 76" fill="none" xmlns="http://www.w3.org/2000/svg">
<g clip-path="url(#clip0)">
<path d="M34 54C45.0457 54 54 44.8218 54 33.5C54 22.1782 45.0457 13 34 13C22.9543 13 14 22.1782 14 33.5C14 44.8218 22.9543 54 34 54Z" fill="#2A2929"/>
<path d="M58.0416 9.84475C51.62 3.4963 43.0818 0 34 0C24.9182 0 16.38 3.4963 9.95839 9.84475C3.5366 16.1935 0 24.6343 0 33.6125C0 49.4519 11.201 63.1266 26.7618 66.459L34 76L41.2384 66.4588C56.799 63.1264 68 49.4519 68 33.6125C68 24.6343 64.4634 16.1935 58.0416 9.84475ZM34 8.77495C47.7705 8.77495 58.9735 19.8504 58.9735 33.4638C58.9735 47.0772 47.7705 58.1526 34 58.1526C20.2295 58.1526 9.02655 47.0772 9.02655 33.4638C9.02655 19.8504 20.2295 8.77495 34 8.77495Z" fill="#2A2929"/>
<path d="M35.6117 27.5706C36.5283 27.6063 38.728 27.392 39.4246 27.8205C40.2678 28.3205 40.4878 29.6417 39.9012 30.4272C39.2779 31.2842 37.9581 31.1414 36.8216 31.1414C35.6117 31.1414 34.4019 31.1414 33.192 31.1414C32.1655 32.6768 31.139 34.2123 30.1124 35.7835C32.3122 35.8549 34.7685 35.7835 36.9316 35.7835C37.8481 35.7835 39.2413 35.6763 39.6812 36.212C40.3411 36.8904 40.3778 37.8188 39.9012 38.6044C39.3879 39.4614 38.398 39.39 37.4815 39.39C35.5751 39.39 28.6093 39.4257 27.6927 39.4257C26.6662 40.9254 25.6763 42.4252 24.6865 43.9249C27.4728 43.9249 30.2224 43.9606 32.8254 43.9606C34.8785 43.9606 38.8746 44.1749 40.6711 43.6035C43.7507 42.6037 45.5471 39.1757 44.8505 36.212C44.4839 34.5337 44.3373 34.7836 43.5307 33.4624C44.2273 32.2484 44.7039 31.9627 44.9239 30.3915C45.4738 26.7136 42.7608 23.1785 38.6547 23.0356C38.1047 23.8212 36.1983 26.6779 35.6117 27.5706Z" fill="url(#paint0_linear)"/>
<path d="M24.6864 43.925C25.6763 42.4252 26.6662 40.9255 27.6927 39.4258V35.8192H30.1124C30.3691 35.4264 33.082 31.3557 33.192 31.1772L27.6927 31.1415L27.7661 27.6064L35.6117 27.5706C36.235 26.6422 38.1047 23.8213 38.6547 23H23V43.925H24.6864Z" fill="url(#paint1_linear)"/>
</g>
<defs>
<linearGradient id="paint0_linear" x1="40.967" y1="41.2465" x2="26.9936" y2="27.0269" gradientUnits="userSpaceOnUse">
<stop stop-color="#7742CC"/>
<stop offset="1" stop-color="#338FFF"/>
</linearGradient>
<linearGradient id="paint1_linear" x1="35.5439" y1="40.5183" x2="24.5639" y2="23.2034" gradientUnits="userSpaceOnUse">
<stop stop-color="#57D5FF"/>
<stop offset="1" stop-color="#67F581"/>
</linearGradient>
<clipPath id="clip0">
<rect width="68" height="76" fill="white"/>
</clipPath>
</defs>
</svg>

<svg width="68" height="76" viewBox="0 0 68 76" fill="none" xmlns="http://www.w3.org/2000/svg"><g clip-path="url(#clip0)"><path d="M34 54c11.046 0 20-9.178 20-20.5S45.046 13 34 13s-20 9.178-20 20.5S22.954 54 34 54z" fill="#2A2929"/><path d="M58.042 9.845C51.62 3.496 43.082 0 34 0S16.38 3.496 9.958 9.845C3.537 16.193 0 24.635 0 33.612c0 15.84 11.201 29.515 26.762 32.847L34 76l7.238-9.541C56.8 63.126 68 49.452 68 33.612c0-8.978-3.537-17.419-9.958-23.767zM34 8.775c13.77 0 24.974 11.075 24.974 24.689 0 13.613-11.203 24.689-24.974 24.689-13.77 0-24.973-11.076-24.973-24.69C9.027 19.85 20.23 8.776 34 8.776z" fill="#2A2929"/><path d="M35.612 27.57c.916.036 3.116-.178 3.813.25.843.5 1.063 1.822.476 2.607-.623.857-1.943.714-3.08.714h-3.629a524.887 524.887 0 00-3.08 4.642c2.2.072 4.657 0 6.82 0 .916 0 2.31-.107 2.75.429.66.678.696 1.607.22 2.392-.514.857-1.504.786-2.42.786-1.907 0-8.873.036-9.79.036-1.026 1.5-2.016 3-3.006 4.499 2.787 0 5.536.036 8.14.036 2.053 0 6.049.214 7.845-.358 3.08-1 4.876-4.427 4.18-7.391-.367-1.678-.514-1.428-1.32-2.75.696-1.214 1.173-1.5 1.393-3.07.55-3.678-2.163-7.213-6.27-7.356-.55.785-2.456 3.642-3.042 4.535z" fill="url(#paint0_linear)"/><path d="M24.686 43.925c.99-1.5 1.98-3 3.007-4.5V35.82h2.42c.256-.393 2.969-4.463 3.079-4.642l-5.5-.035.074-3.536 7.846-.035c.623-.929 2.493-3.75 3.043-4.571H23v20.925h1.686z" fill="url(#paint1_linear)"/></g><defs><linearGradient id="paint0_linear" x1="40.967" y1="41.246" x2="26.994" y2="27.027" gradientUnits="userSpaceOnUse"><stop stop-color="#7742CC"/><stop offset="1" stop-color="#338FFF"/></linearGradient><linearGradient id="paint1_linear" x1="35.544" y1="40.518" x2="24.564" y2="23.203" gradientUnits="userSpaceOnUse"><stop stop-color="#57D5FF"/><stop offset="1" stop-color="#67F581"/></linearGradient><clipPath id="clip0"><path fill="#fff" d="M0 0h68v76H0z"/></clipPath></defs></svg>
